svg/fluentui-system-icons/ic_fluent_emoji_angry_16_regular.svg

<svg width="16" height="16" viewBox="0 0 16 16" fill="none" xmlns="http://www.w3.org/2000/svg">
<path d="M7 7C7 7.41421 6.66421 7.75 6.25 7.75C5.83579 7.75 5.5 7.41421 5.5 7C5.5 6.78198 5.59303 6.58569 5.74155 6.44865L5.14645 5.85355C4.95118 5.65829 4.95118 5.34171 5.14645 5.14645C5.34171 4.95118 5.65829 4.95118 5.85355 5.14645L6.85355 6.14645C7.0097 6.30259 7.04098 6.53631 6.9474 6.72354C6.98134 6.80909 7 6.90236 7 7ZM9.75 7.75C10.1642 7.75 10.5 7.41421 10.5 7C10.5 6.78198 10.407 6.58569 10.2585 6.44865L10.8536 5.85355C11.0488 5.65829 11.0488 5.34171 10.8536 5.14645C10.6583 4.95118 10.3417 4.95118 10.1464 5.14645L9.14645 6.14645C8.9903 6.30259 8.95902 6.53631 9.0526 6.72354C9.01866 6.80909 9 6.90236 9 7C9 7.41421 9.33579 7.75 9.75 7.75ZM5.43022 11.3726C5.63598 11.5567 5.95208 11.5392 6.13624 11.3335C6.59473 10.8212 7.25941 10.5 7.99978 10.5C8.74015 10.5 9.40484 10.8212 9.86332 11.3335C10.0475 11.5392 10.3636 11.5567 10.5693 11.3726C10.7751 11.1884 10.7926 10.8723 10.6085 10.6665C9.9683 9.9513 9.03641 9.5 7.99978 9.5C6.96315 9.5 6.03127 9.9513 5.39111 10.6665C5.20695 10.8723 5.22446 11.1884 5.43022 11.3726ZM8 2C11.3137 2 14 4.68629 14 8C14 11.3137 11.3137 14 8 14C4.68629 14 2 11.3137 2 8C2 4.68629 4.68629 2 8 2ZM8 3C5.23858 3 3 5.23858 3 8C3 10.7614 5.23858 13 8 13C10.7614 13 13 10.7614 13 8C13 5.23858 10.7614 3 8 3Z" fill="#212121"/>
</svg>

<svg xmlns="http://www.w3.org/2000/svg" width="16" height="16"><path d="M7 7a.75.75 0 1 1-1.258-.551l-.596-.595a.5.5 0 1 1 .708-.708l1 1a.5.5 0 0 1 .093.578A.748.748 0 0 1 7 7Zm2.75.75a.75.75 0 0 0 .508-1.301l.596-.595a.5.5 0 0 0-.708-.708l-1 1a.5.5 0 0 0-.093.578.75.75 0 0 0 .697 1.026Zm-4.32 3.623a.5.5 0 0 0 .706-.04A2.492 2.492 0 0 1 8 10.5c.74 0 1.405.321 1.863.834a.5.5 0 0 0 .745-.668A3.493 3.493 0 0 0 8 9.5a3.493 3.493 0 0 0-2.609 1.166.5.5 0 0 0 .04.707ZM8 2a6 6 0 1 1 0 12A6 6 0 0 1 8 2Zm0 1a5 5 0 1 0 0 10A5 5 0 0 0 8 3Z"/></svg>
